!!!!SEGMENT: pl-wtm--r-280-m_moniuszko-stanislaw--inclina-aurem-tuam.krn
!!!cenid: 18xx:2713
!!!COM: Moniuszko, Stanisław
!!!COM-rismid: pe30008351
!!!CDT: 1819/05/05-1872/06/04
!!!CNT: Polish
!!!OTL: Inclina aurem Tuam
!!!PDT:
!!!AGN:
!!!SMS-siglum: PL-Wtm
!!!SMS-shelfmark: R 280/M
!!!SMS-shelfwork: W
!!!SMS-variant:
!!!SMS-altvar:
!!!NIFC-rismid: 1001100176
!!!URL-scan: http://repozytorium.nifc.pl/skany/pl-wtm-nut--r280m
!!!ONB-nifc:
!!!key:
**kern	**kern	**dynam	**kern	**text	**dynam
*part2	*part2	*part2	*part1	*part1	*part1
*staff3	*staff2	*	*staff1	*staff1	*
*I""[Organo]	*I""[Organo]	*	*	*	*
*Iorgan	*Iorgan	*	*Ivox	*	*
*I"[Organo]	*I"[Organo]	*	*I"[Voce]	*	*
*clefF4	*clefG2	*	*clefG2	*	*
*k[b-e-a-d-]	*k[b-e-a-d-]	*	*k[b-e-a-d-]	*	*
*A-:	*A-:	*	*A-:	*	*
*M4/4	*M4/4	*	*M4/4	*	*
*met(c)	*met(c)	*	*met(c)	*	*
*all\right	*all\right	*	*all\right	*	*
*2\right	*2\right	*	*2\right	*	*
=1	=1	=1	=1	=1	=1
N(8AA-/L	2ryy	p	2r	.	.
8E-/	.	.	.	.	.
8A-/	.	.	.	.	.
8c/J	.	.	.	.	.
!	!	!	!LO:TX:t=P:problem=2\right&colon; global	!	!
2ryy	(8e-/L	.	2ee-\	In-	.
.	8c/	.	.	.	.
.	8e-/	.	.	.	.
.	8a-/JN)	.	.	.	.
=2	=2	=2	=2	=2	=2
*^	*	*	*	*	*
1E-	1AA-	8cc/L	.	4cc\	-cli-	.
.	.	8c/	.	.	.	.
.	.	8e-/	.	8b-/L	-na	.
.	.	8c/J	.	8a-/J	.	.
.	.	8d-/L	.	4g/	au-	.
.	.	8e-/	.	.	.	.
.	.	8c/	.	4a-/	-rem	.
.	.	8e-/J	.	.	.	.
=3	=3	=3	=3	=3	=3	=3
2G/	1AA-	8B-/L	.	2b-\	tu-	.
.	.	8e-/	.	.	.	.
.	.	8b-/	.	.	.	.
.	.	8e-/J	.	.	.	.
2G-X/	.	8a-/L	.	4cc\	-am,	.
.	.	8e-/	.	.	.	.
.	.	8c/	.	8r	.	.
.	.	8e-/J	.	8cc\	ex-	.
!!LO:LB:g=original
=4	=4	=4	=4	=4	=4	=4
2F/	1AA-	8d-/L	.	4.dd-\	-au-	.
.	.	8a-/	.	.	.	.
.	.	8b-/	.	.	.	.
.	.	8a-/J	.	8dd-\	-di	.
2G/	.	8e-/L	.	4.ee-\	ver-	.
.	.	8f/	.	.	.	.
.	.	8e-/	.	.	.	.
.	.	8d-/J	.	8a-\	-ba	.
=5	=5	=5	=5	=5	=5	=5
2A-/	1AA-	8c/L	.	2cc\	me-	.
.	.	8e-/	.	.	.	.
.	.	8a-/	.	.	.	.
.	.	8e-/J	.	.	.	.
2E-/	.	8c/L	.	8cc\	-a!	.
.	.	8e-/	.	8r	.	.
.	.	8c/	.	4ee-\	in-	.
.	.	8e-/J	.	.	.	.
=6	=6	=6	=6	=6	=6	=6
*	*	*^	*	*	*	*
2.E-/	1AA-	8a-/L	1c	.	4.ff^\	-cli-	.
.	.	8e-/	.	.	.	.	.
.	.	8cc/	.	.	.	.	.
.	.	8a-/J	.	.	8ee-\	-na	.
.	.	8e-/L	.	.	4cc\	au-	.
.	.	8a-/	.	.	.	.	.
4A-/	.	8c/	.	.	4a-/	-rem	.
.	.	8e-/J	.	.	.	.	.
=7	=7	=7	=7	=7	=7	=7	=7
!	!	!	!LO:TX:t=P:problem=poprawiona wersja grupy zapisana u dołu systemu za pomocą odnośnika (x)	!	!	!	!
2A-/	2.AA-\	8dn/L	2c-\	.	2f/	tu-	.
.	.	8f/	.	.	.	.	.
.	.	8d/	.	.	.	.	.
.	.	8f/J	.	.	.	.	.
4B-X/	.	8g/L	4d-X\	.	4g/	-am,	.
.	.	8e-/	.	.	.	.	.
4A-/	4A-\	8a-/	4c-\	.	4a-/	ex-	.
.	.	8e-/J	.	.	.	.	.
!!LO:LB:g=original
=8	=8	=8	=8	=8	=8	=8	=8
*	*	*	*2\left	*	*	*	*
4G/	1E-	8b-/L	2d-\	.	4.b-\	-au-	.
.	.	8e-/	.	.	.	.	.
4B-/	.	8g/	.	.	.	.	.
.	.	8b-/J	.	.	8b-\	-di	.
*	*	*	*2\right	*	*	*	*
2A-/	.	8cc/L	2c\	.	4cc\	ver-	.
.	.	8a-/	.	.	.	.	.
.	.	8e-/	.	.	4a-/	-ba	.
.	.	8a-/J	.	.	.	.	.
=9	=9	=9	=9	=9	=9	=9	=9
1G	1EE-	8b-/L	4B-\	.	4b-/	me-	.
.	.	8g/	.	<	.	.	.
.	.	8e-/	4rcyy	.	4e-/	-a!	.
.	.	8g/J	.	.	.	.	.
.	.	8B-/L	2rcyy	.	4r	.	.
.	.	8e-/	.	.	.	.	.
!	!	!	!	!	!	!	!LO:DY:a
.	.	8g/	.	[	4g/	Mi-	f
.	.	8e-/J	.	f	.	.	.
=10	=10	=10	=10	=10	=10	=10	=10
1G	2E-\	8cc/L	2.rcyy	.	4.cc^\	-ri-	.
.	.	8c/	.	.	.	.	.
.	.	8g/	.	.	.	.	.
.	.	8cc/J	.	.	8g/	-fi-	.
.	2BBn\	8ddn/L	.	.	4ddn^\	-ca	.
.	.	8f/	.	.	.	.	.
.	.	8g/	[4g\	.	4dd\	mi-	.
.	.	8dd/J	.	.	.	.	.
=11	=11	=11	=11	=11	=11	=11	=11
2G/	2C\	1ee-	8g\L]	.	2.ee-^\	-se-	.
.	.	.	8e-\	.	.	.	.
.	.	.	8g\	.	.	.	.
.	.	.	(<8cc\J	.	.	.	.
2c/	2AA-\	.	8ee-/L)	.	.	.	.
.	.	.	8e-/	.	.	.	.
.	.	.	8a-/	.	4ee-\	-ri-	.
.	.	.	8cc/J	.	.	.	.
!!LO:LB:g=original
=12	=12	=12	=12	=12	=12	=12	=12
2c/	2FF\	4ee-/	8a-\L	.	4ee-^\	-cor-	.
.	.	.	8e-\	.	.	.	.
.	.	8ddn/L	8f\	.	8ddn\	-di-	.
.	.	8cc/J	8a-\J	.	8cc\	-as	.
2G/	2GG\	2bn/	8a-\L	.	2bn\	tu-	.
.	.	.	8dn\	.	.	.	.
.	.	.	8g\	.	.	.	.
.	.	.	8f\J	.	.	.	.
=13	=13	=13	=13	=13	=13	=13	=13
1G	1C	8cc/L	4e-\	.	4cc\	-as,	.
.	.	8g/	.	>	.	.	.
.	.	8gg/	4rcyy	.	4r	.	.
.	.	8ee-/J	.	.	.	.	.
.	.	8cc/L	2rcyy	.	4r	.	.
.	.	8g/	.	.	.	.	.
!	!	!	!	!	!	!	!LO:DY:a
.	.	8e-/	.	.	4e-/	qui	p
.	.	8c/J	.	]	.	.	.
=14	=14	=14	=14	=14	=14	=14	=14
1E-	2C\	2ryy	8a-/L	p	2a-/	sal-	.
.	.	.	8A-/	.	.	.	.
.	.	.	8e-/	.	.	.	.
.	.	.	8a-/J	.	.	.	.
*	*	*2/left	*	*	*	*	*
.	2GG\	2b-	8d-\L	.	2b-\	-vos	.
.	.	.	8e-\	.	.	.	.
.	.	.	8dn\	.	.	.	.
.	.	.	8d-X\J	.	.	.	.
=15	=15	=15	=15	=15	=15	=15	=15
*	*	*2/right	*	*	*	*	*
2E-/	2AA-\	8cc/L	4c\	.	2cc\	fa-	.
.	.	8a-/	.	.	.	.	.
.	.	8e-/	4rcyy	.	.	.	.
.	.	8c/J	.	.	.	.	.
2F/	2FF\	8a-/L	2rcyy	.	8a-/	-cis	.
.	.	8f/	.	.	8r	.	.
.	.	8c/	.	.	4a-/	spe-	.
.	.	8f/J	.	.	.	.	.
!!LO:LB:g=original
=16	=16	=16	=16	=16	=16	=16	=16
2D-/	2DD-\	8a-/L	[2f\	.	2ff\	-ran-	.
.	.	8B-/	.	.	.	.	.
.	.	8b-/	.	.	.	.	.
.	.	8a-/J	.	.	.	.	.
4BB-/	2EE-\	2g/	8f\L]	.	4.ee-\	-tes	.
.	.	.	8e-\	.	.	.	.
4E-/	.	.	8B-\	.	.	.	.
.	.	.	8d-\J	.	8g/	in	.
*v	*v	*	*	*	*	*	*
=17	=17	=17	=17	=17	=17	=17
2FF/	8a-/ 8A-/L	2.ryy	<	2a-/	te.	.
.	8d-/	.	.	.	.	.
.	8f/	.	.	.	.	.
.	8a-/J	.	.	.	.	.
2GG/	8b-/L	.	.	4r	.	.
.	8e-/J	.	[	.	.	.
!	!	!	!	!	!	!LO:DY:a
.	8ee-\L	4e-\	.	4ee-\	Ex-	f
.	8dd-\J	.	f	.	.	.
=18	=18	=18	=18	=18	=18	=18
*^	*	*	*	*	*	*
2A-/	1E- [1AA-	(4.ee- 4.cc/	8a-\L	.	(2aa-\	-au-	.
.	.	.	8e-\	.	.	.	.
.	.	.	8r	.	.	.	.
.	.	8cc/	8e-\J	.	.	.	.
[2E-/	.	4b-/	8g\L	.	4.ee-\)	.	.
.	.	.	8e-\	.	.	.	.
.	.	4g/)	8d-\	.	.	.	.
.	.	.	8B-\J	.	8dd-\	-di	.
*	*	*v	*v	*	*	*	*
=19	=19	=19	=19	=19	=19	=19
!	!	!LO:TX:t=P:problem=błędne wyświetlanie łuku	!	!LO:TX:t=P:problem=sylaba nadpisana u góry	!	!
4E-/]	1AA-]	(8a-L N8c/	.	2cc\	me!	.
.	.	8e-/	.	.	.	.
4rcyy	.	8c/	.	.	.	.
!	!	!	!LO:DY:a	!	!	!
.	.	8A-</J	>	.	.	.
2rcyy	.	8c</L	.	4r	.	.
.	.	8A-</	.	.	.	.
!	!	!	!	!	!	!LO:DY:a
.	.	8E-</	.	4e-/	ex-	p
.	.	8C</JN)	]	.	.	.
!!LO:PB:g=original
=20	=20	=20	=20	=20	=20	=20
*	*	*^	*	*	*	*
!	!	!	!	!	!LO:TX:t=P:problem=poprawiony tekst nadpisany u góry	!	!
8rc	2AA-\	2e-/	4.c\	pp	(4..a-/	-au-	.
!LO:TX:t=P:problem=mixed beam	!	!	!	!	!	!	!
8E-/L	.	.	.	.	.	.	.
8A-/	.	.	.	.	.	.	.
8c>J	.	.	8rcyy	.	.	.	.
.	.	.	.	.	16g/)	.	.
8rc	2AA-\	2f-X/	4.d-\	.	4..a-/	-di	.
!LO:TX:t=P:problem=mixed beam	!	!	!	!	!	!	!
8D-/L	.	.	.	.	.	.	.
8A-/	.	.	.	.	.	.	.
8d->J	.	.	8rcyy	.	.	.	.
.	.	.	.	.	16f-X/	me	.
*	*	*v	*v	*	*	*	*
=21	=21	=21	=21	=21	=21	=21
!	!	!	!	!LO:TX:t=P:problem=interpretacja nuty niepewna	!	!
1ryy	2.AA-\	8e-L 8c/	.	4.e-/	Do-	.
.	.	8A-<	.	.	.	.
.	.	8c<	.	.	.	.
.	.	8E-<J	.	8c/	-mi-	.
.	.	8A-<L	.	8c/	-ne	.
.	.	8C<	.	8r	.	.
.	4rEE	8E-<	.	4e-/	qui	.
.	.	8C<J	mf	.	.	.
*v	*v	*	*	*	*	*
=22	=22	=22	=22	=22	=22
*	*^	*	*	*	*
2AA-/	2.a-/	8rc	.	2cc\	sal-	.
.	.	8e-\L	.	.	.	.
.	.	8c\	.	.	.	.
.	.	8e-\J	.	.	.	.
2D-\	.	8f\L	.	2ff\	-vos	.
.	.	8B-\	.	.	.	.
.	4b-/	8b-\	.	.	.	.
.	.	8f\J	.	.	.	.
=23	=23	=23	=23	=23	=23	=23
2G 2C\	4.cc/	8en\L	.	(4een\	fa-	.
.	.	8f\	.	.	.	.
.	.	8e\	.	2gg\)	.	.
.	8b-/	8g\J	.	.	.	.
[2A-\	2a-/	8f\L	.	.	.	.
.	.	8c\	.	.	.	.
.	.	8f\	.	8cc\	-cis	.
.	.	8e-X\J	.	8cc\	spe-	.
*	*v	*v	*	*	*	*
!!LO:LB:g=original
=24	=24	=24	=24	=24	=24
*^	*	*	*	*	*
2A-/]	2BB-/	8d-/L	.	2dd-\	-ran-	.
.	.	8f/	.	.	.	.
.	.	8b-/	.	.	.	.
.	.	8a-/J	.	.	.	.
4.B-/	2E-\	8g/L	.	4.g/	-tes	.
.	.	8e-/	.	.	.	.
.	.	8d-/	.	.	.	.
8ryy	.	8B-/J	.	8g/	in	.
=25	=25	=25	=25	=25	=25	=25
*	*	*^	*	*	*	*
1E-	[1AA-	8c/L	1c	.	2a-/	te.	.
.	.	8e-/	.	.	.	.	.
.	.	8f/	.	.	.	.	.
.	.	8g/J	.	.	.	.	.
.	.	8a-/L	.	.	2r	.	.
.	.	8b-/	.	.	.	.	.
.	.	8cc/	.	.	.	.	.
.	.	8e-/J	.	.	.	.	.
=26	=26	=26	=26	=26	=26	=26	=26
2F/	1AA-_	8rcc	2d-\	.	1r	.	.
.	.	8cc/L	.	.	.	.	.
.	.	8b-/	.	.	.	.	.
.	.	8a-/J	.	.	.	.	.
[2E-/	.	[2g/	8rB	.	.	.	.
.	.	.	8e-\L	.	.	.	.
.	.	.	8B-\	.	.	.	.
.	.	.	8d-\J	.	.	.	.
=27	=27	=27	=27	=27	=27	=27	=27
2E-/]	2AA-\]	8g/L]	2c\	.	1r	.	.
.	.	8b-/	.	.	.	.	.
.	.	8a-/	.	.	.	.	.
.	.	8g/J	.	.	.	.	.
2A-/	2C\	8a-/L	4.e-\	.	.	.	.
.	.	8cc/J	.	.	.	.	.
.	.	[4ee-/	.	.	.	.	.
.	.	.	8g-X\	.	.	.	.
=28	=28	=28	=28	=28	=28	=28	=28
2A-/	2D-\	8ee-/L]	4f\	.	1r	.	.
.	.	8dd-/	.	.	.	.	.
.	.	8a-/	4f-X\	.	.	.	.
.	.	8b-/J	.	.	.	.	.
!	!	!	!LO:TX:t=P:problem=błędne wyświetlenie łuku	!	!	!	!
(4A- 4AA-/	2rEEyy	8cc/L	(>4e-\	.	.	.	.
.	.	8cc-X/	.	.	.	.	.
!	!	!	!	!	!	!	!
8GL 8GG/	.	8b-/	4d#\)	.	.	.	.
8F#XJ 8FF#X/)	.	8an/J	.	.	.	.	.
*v	*v	*	*	*	*	*	*
*	*v	*v	*	*	*	*
!!LO:LB:g=original
=29	=29	=29	=29	=29	=29
!	!	!	!	!	!LO:DY:a
1BBn 1GG#X 1EEn	8g#X 8en'/	pp	2g#X/	De-	p
.	(4Bn< 4G#X</	.	.	.	.
.	8g# 8e 8B</)	.	.	.	.
.	8g#L 8e 8B<'/	.	8g#/	-us!	.
!	!	!LO:HP:b=2:t=cres-cen-do:ext2=cd	!	!	!
.	(<8B< 8G#</	<	8r	.	.
!	!	!	!	!	!LO:HP:t=cres-cen-do:ext2=cd
.	8e 8B</	.	4g#/	il-	<
.	8g#J 8e/)	.	.	.	.
=30	=30	=30	=30	=30	=30
1BBn 1FF#X 1DD#X	8f#X 8Bn<'/	.	4.bn\	-lu-	.
.	(<4B< 4F#X</	.	.	.	.
.	8f# 8B</)	.	8b\	-mi-	.
.	8f# 8B<'/	.	2b\	-na	.
.	(<8B<L 8F#</	.	.	.	.
.	8f# 8B</	.	.	.	.
.	8anJ 8f#/)	.	.	.	.
=31	=31	=31	=31	=31	=31
1BBn 1GGn 1DDn	8bn 8g'/	.	2bn^\	De-	.
.	(4d- 4Bn/	.	.	.	.
.	8b 8g 8d-/)	.	.	.	.
.	8bL 8g 8d-'/	.	8b\	-us!	.
.	(8d- 8B/	.	8r	.	.
.	8g 8d-/	.	4b\	il-	[[
.	8bJ 8g/)	.	.	.	.
=32	=32	=32	=32	=32	=32
2.AA- 2.DD-/	8an 8f#X'/	.	4.ddn\	-lu-	.
.	(4d- 4An</	[	.	.	.
!	!	!	!	!	!LO:DY:a
.	8a 8f# 8d-/)	.	8an/	-mi-	>
.	8aL 8f#/	.	8a/	-na	]
.	(8d-/	.	8r	.	.
!	!	!	!	!	!LO:DY:a
4C/	8a 8f#/	.	4cc\	te-	p
.	8dd-/J)	.	.	.	.
!!LO:LB:g=original
=33	=33	=33	=33	=33	=33
(4BB-X/	(8ddnL 8g/	p	4ddn\	-ne-	.
.	8dn/	.	.	.	.
4C/	8g 8e-/	.	4cc\	-bras	.
.	8cc/J	.	.	.	.
[4Dn/	8a-L 8g/	.	4b-X/	me-	.
.	8d/	.	.	.	.
4D] 4DDn/	8en 8c#X/	.	4an/	.	.
.	8f#XJ 8cn/	.	.	.	.
=34	=34	=34	=34	=34	=34
2GG/)	8gL 8B-/	.	2b-\	-as.	.
.	8d-/	.	.	.	.
.	8g/	.	.	.	.
.	8d-/J	.	.	.	.
!LO:TX:t=P:problem=poprawna wersja grupy zapisana u dołu systemu	!	!	!	!	!
(8GL 8GG/	4b-/)	.	2r	.	.
8G-X 8GG-X/	.	.	.	.	.
8F 8FF/	4r	.	.	.	.
8F-XJ 8FF-X/)	.	.	.	.	.
=35	=35	=35	=35	=35	=35
!	!	!	!	!	!LO:DY:a
1E-X 1BB- 1GG 1EE-X	8b- 8g'/	.	2b-\	De-	p
.	(4e- 4B-< 4G</	.	.	.	.
.	8a- 8e- 8B-</)	.	.	.	.
.	8b-L 8g 8e-|/	.	8b-\	-us!	.
!	!	!LO:HP:b=2:t=cres-cen-do:ext2=cd	!	!	!
.	(8B-/	<	8r	.	.
!	!	!	!	!	!LO:HP:t=cres-cen-do:ext2=cd
.	8g 8e-|/	.	4b-\	il-	<
.	8b-/J)	.	.	.	.
=36	=36	=36	=36	=36	=36
1E- 1C 1AA-	8cc 8a- 8e-'/	.	4.cc\	-lu-	.
.	(>4e- 4c/	.	.	.	.
.	8a- 8e- 8c/)	.	8cc\	-mi-	.
*	*	*	*2\left	*	*
.	(8ccL 8a- 8e-/	.	2cc\	-na	.
.	8c/)	.	.	.	.
.	(8a- 8e- 8c/	.	.	.	.
.	8cc/J)	.	.	.	.
!!LO:LB:g=original
=37	=37	=37	=37	=37	=37
*	*^	*	*	*	*
*	*	*	*	*2\right	*	*
1En 1C 1BB- 1FF	8cc 8b- 8en/	2.rc	.	2cc^\	De-	.
.	4c/	.	.	.	.	.
.	8g 8c/	.	.	.	.	.
.	8b-L 8g/	.	.	8cc\	-us!	.
.	8c/	.	.	8r	.	.
.	8b-/	4g\	.	4cc\	il-	[
.	8cc/J	.	[	.	.	.
=38	=38	=38	=38	=38	=38	=38
!	!	!	!LO:HP:b=2	!	!	!LO:DY:a
1F 1C 1AA- 1FF	8cc/	8a-\	>	4.ff\	-lu-	>
.	(4c 4A-/	2rcyy	.	.	.	.
.	8f 8c 8A-/)	.	.	8cc\	-mi-	]
.	(8a-L 8f 8c/	.	.	8cc\	-na	.
.	8A-/)	8rcyy	.	8r	.	.
!	!	!	!	!	!	!LO:DY:a
.	(8a-/	4f\	]	4cc\	te-	p
!	!	!	!LO:DY:b=2	!	!	!
.	8cc/J)	.	pp	.	.	.
=39	=39	=39	=39	=39	=39	=39
1D- 1GG-X 1DD- 1BBB-	(<8dd-/L	4.d-\	.	4dd-X\	-ne-	.
.	8b-/	.	.	.	.	.
.	8g-X/	.	.	4b-\	-bras	.
.	8d-/J	8rcyy	.	.	.	.
.	8B-/L	2rcyy	.	(4.g-X/	me-	.
.	8G-X/	.	.	.	.	.
.	8g-/	.	.	.	.	.
.	8f/J	.	.	8f/)	.	.
*	*v	*v	*	*	*	*
=40	=40	=40	=40	=40	=40
1D- 1BB-	8en/L	.	2en/	-as!	.
.	8Gn/	.	.	.	.
.	8B-/	.	.	.	.
.	8d-/J	.	.	.	.
.	8e/L	.	4r	.	.
.	8g/	.	.	.	.
.	8b-/	.	4dd-\	In-	.
.	8dd-/J)	.	.	.	.
!!LO:PB:g=original
=41	=41	=41	=41	=41	=41
*^	*	*	*	*	*
1F	1AA-	8cc/L	.	4cc\	-cli-	.
.	.	8c/	.	.	.	.
.	.	8f/	.	8b-/L	-na	.
.	.	8a-/J	.	8a-/J	.	.
.	.	8g/L	.	4g/	au-	.
.	.	8c/	.	.	.	.
.	.	8f 8d-/	.	4f/	-rem	.
.	.	8c/J	.	.	.	.
=42	=42	=42	=42	=42	=42	=42
*	*	*^	*	*	*	*
!	!	!LO:TX:t=P:problem=mixed beam	!	!	!	!	!
2ryy	1BB-	2f/	8d-\L	.	2f/	tu-	.
.	.	.	8G</	.	.	.	.
.	.	.	8B-</	.	.	.	.
.	.	.	8d-\J	.	.	.	.
2G/	.	8en/L	2e\	.	8en/	-am!	.
.	.	8g/	.	.	8r	.	.
.	.	8b-/	.	.	4dd-\	ex-	.
.	.	8dd-/J	.	.	.	.	.
*	*	*v	*v	*	*	*	*
=43	=43	=43	=43	=43	=43	=43
2A-/	1AA-	8f/L	.	8dd-\L	-au-	.
.	.	8c/	.	8cc\J	.	.
.	.	8f/	.	8b-/L	-di	.
.	.	8a-/J	.	8a-/J	.	.
4En/	.	8g/L	.	4g/	ver-	.
.	.	8c/	.	.	.	.
4F/	.	8a-/	.	4a-/	-ba	.
.	.	8c/J	.	.	.	.
=44	=44	=44	=44	=44	=44	=44
*	*	*^	*	*	*	*
2G/	1AA-	2b-/	8rc	.	2b-\	me-	.
.	.	.	8d-\L	.	.	.	.
.	.	.	8f-X\	.	.	.	.
.	.	.	8d-\J	.	.	.	.
8G-X/L	.	2cc/	4.e-\	.	8cc\	-a.	.
8E-X/J	.	.	.	.	8r	.	.
4A-/	.	.	.	.	4cc\	ex-	.
.	.	.	8g-X\	.	.	.	.
!!LO:LB:g=original
=45	=45	=45	=45	=45	=45	=45	=45
2F/	1AA-	8dd-/L	2.d-\	.	4.dd-\	-au-	.
.	.	8cc/	.	.	.	.	.
.	.	8b-/	.	.	.	.	.
.	.	8a-/J	.	.	8dd-\	-di	.
2G/	.	8g/L	.	.	4.ee-\	Do-	.
.	.	8f/	.	.	.	.	.
.	.	8e-/	4rcyy	.	.	.	.
.	.	8d-/J	.	.	8b-\	-mi-	.
*	*	*v	*v	*	*	*	*
=46	=46	=46	=46	=46	=46	=46
2A-/	1AA-	8c/L	.	[2cc\	-ne!	.
.	.	8e-/	.	.	.	.
.	.	8a-/	.	.	.	.
.	.	8e-/J	.	.	.	.
2E-/	.	8c/L	.	8cc\]	.	.
.	.	8e-/	.	8r	.	.
.	.	8c/	.	4ee-\	Mi-	.
.	.	8e-/J	.	.	.	.
=47	=47	=47	=47	=47	=47	=47
*	*	*^	*	*	*	*
2.E-/	1AA-	8a-/L	2c\	.	4.ff\	-ri-	.
.	.	8e-/	.	.	.	.	.
.	.	8cc/	.	.	.	.	.
.	.	8a-/J	.	.	8ee-\	-fi-	.
.	.	8e-/L	2rcyy	.	4cc\	-ca	.
.	.	8a-/	.	.	.	.	.
4A-/	.	8c/	.	.	4a-/	mi-	.
.	.	8e-/J	.	.	.	.	.
=48	=48	=48	=48	=48	=48	=48	=48
!	!	!LO:TX:t=P:problem=poprawiona wersja grupy zapisana u dołu systemu za pomocą odnośnika (x)	!	!	!	!	!
(<2A-/	1AA-	8dn/L	2c-X\	.	4.f/	-se-	.
.	.	8f/	.	.	.	.	.
.	.	8d/	.	.	.	.	.
.	.	8f/J	.	.	8f/	-ri-	.
4B-X/	.	8g/L	4d-X\	.	4g/	-cor-	.
.	.	8e-/	.	.	.	.	.
4A-/)	.	8a-/	4cn\	.	4a-/	-dias	.
.	.	8e-/J	.	.	.	.	.
=49	=49	=49	=49	=49	=49	=49	=49
4G/	1AA-	8r	2.d-\	.	4b-\	spe-	.
.	.	8e-/L	.	.	.	.	.
4E-/	.	8g/	.	.	2dd-\	-ran-	.
.	.	8b-/J	.	.	.	.	.
4F/	.	8a-/L	.	.	.	.	.
.	.	8f/	.	.	.	.	.
4G/	.	8e-/	4rcyy	.	8cc\	-tes	.
.	.	8d-/J	.	.	8b-\	in	.
!!LO:LB:g=original
=50	=50	=50	=50	=50	=50	=50	=50
1A-	4AA-\	8c/L	2.c\	.	2cc\	te!	.
.	.	8f/	.	.	.	.	.
.	4r	8a-/	.	.	.	.	.
.	.	8cc/J	.	.	.	.	.
.	2r	8a-/L	.	.	4r	.	.
.	.	8cc/	.	.	.	.	.
!	!	!	!	!	!	!	!LO:DY:a
.	.	8ff/	4e-\	.	4ee-\	Ex-	f
.	.	8cc/J	.	f	.	.	.
=51	=51	=51	=51	=51	=51	=51	=51
2A- 2E-/	1AA-	4.ee- 4.cc/	8a-\L	.	(2aa-\	-au-	.
.	.	.	8e-\	.	.	.	.
.	.	.	8a-\	.	.	.	.
.	.	8cc/	8e-\J	.	.	.	.
2E-/	.	4b-/	8g\L	.	4.ee-\)	.	.
.	.	.	8e-\	.	.	.	.
.	.	4g/	8d-\	.	.	.	.
.	.	.	8B-\J	.	8dd-\	-di	.
*	*	*v	*v	*	*	*	*
=52	=52	=52	=52	=52	=52	=52
4E-/	1AA-	8a-L 8c/	.	2cc\	me!	.
.	.	8e-/	.	.	.	.
4rBB	.	8c/	.	.	.	.
!	!	!	!LO:DY:a	!	!	!
.	.	8A-</J	>	.	.	.
2rcyy	.	8c</L	.	4r	.	.
.	.	8A-</	.	.	.	.
!	!	!	!	!	!	!LO:DY:a
.	.	8E-</	.	4e-/	ex-	p
.	.	8C</J	]	.	.	.
=53	=53	=53	=53	=53	=53	=53
*	*	*^	*	*	*	*
8r	2AA-\	2e-/	4.c\	p	4..a-/	-au-	.
!LO:TX:t=P:problem=mixed beam	!	!	!	!	!	!	!
8E-/L	.	.	.	.	.	.	.
8A-/	.	.	.	.	.	.	.
8c>\J	.	.	8rcyy	.	.	.	.
.	.	.	.	.	16g/	-di	.
!	!	!	!	!	!LO:TX:t=P:problem=poprawne sylaby zapisane u góry	!	!
8ryy	2AA-\	2f-X/	4.d-\	.	4..a-/	ver-	.
!LO:TX:t=P:problem=mixed beam	!	!	!	!	!	!	!
8D-/L	.	.	.	.	.	.	.
8A-/	.	.	.	.	.	.	.
8d->\J	.	.	8rcyy	.	.	.	.
.	.	.	.	.	16f-X/	-ba	.
*	*	*v	*v	*	*	*	*
!!LO:LB:g=original
=54	=54	=54	=54	=54	=54	=54
1ryy	1AA-	8e-L 8c/	.	2e-/	me-	.
.	.	8A-</	.	.	.	.
.	.	8c</	.	.	.	.
.	.	8E-</J	.	.	.	.
.	.	8A-</L	.	8c/	-a	.
.	.	8C</	.	8r	.	.
.	.	8E-</	.	4e-/	qui	.
.	.	8C</J	.	.	.	.
*v	*v	*	*	*	*	*
=55	=55	=55	=55	=55	=55
*	*^	*	*	*	*
2AA-/	2.a-/	8rc	.	2cc\	sal-	.
.	.	8e-\L	.	.	.	.
.	.	8c\	.	.	.	.
.	.	8e-\J	.	.	.	.
2D-\	.	8f\L	.	2ff\	-vos	.
.	.	8B-\	.	.	.	.
.	4b-/	8b-\	.	.	.	.
.	.	8f\J	.	.	.	.
=56	=56	=56	=56	=56	=56	=56
2C/	4.cc/	8enL 8c\	.	(4een\	fa-	.
.	.	8f\	.	.	.	.
.	.	8e\	.	2gg\)	.	.
.	8b-/	8g\J	.	.	.	.
2F\	2an/	8f\L	.	.	.	.
.	.	8c\	.	.	.	.
.	.	8f\	.	8cc\	-cis	.
.	.	8e-X\J	.	8cc\	spe-	.
=57	=57	=57	=57	=57	=57	=57
*^	*	*	*	*	*	*
1ryy	(1BB-	8b-/L	1dn	.	1ff	-ran-	.
.	.	8f/	.	.	.	.	.
.	.	8a-/	.	.	.	.	.
.	.	8cc/J	.	.	.	.	.
.	.	8b-/L	.	.	.	.	.
.	.	8f/	.	.	.	.	.
.	.	8g/	.	.	.	.	.
.	.	8a-/J	.	.	.	.	.
!!LO:LB:g=original
=58	=58	=58	=58	=58	=58	=58	=58
!	!	!	!LO:TX:t=P:problem=błędne wyświetlanie łuku	!	!	!	!
1ryy	1E-)	8a-/L	(4d-X\	.	4ee-\	-tes	.
.	.	8g/	.	.	.	.	.
.	.	8d-/	4B-</)	.	4r	.	.
.	.	8f/J	.	.	.	.	.
.	.	8e-/L	2B-</	.	2g/	in	.
.	.	8f-X/	.	.	.	.	.
.	.	8e-/	.	.	.	.	.
.	.	8d-/J	.	.	.	.	.
=59	=59	=59	=59	=59	=59	=59	=59
1E-	1AA-	8rg	1c	.	2a-/	te.	.
.	.	8e-/L	.	.	.	.	.
.	.	8f/	.	.	.	.	.
.	.	8g/J	.	.	.	.	.
.	.	8a-/L	.	.	2r	.	.
.	.	8b-/	.	.	.	.	.
.	.	8cc/	.	.	.	.	.
.	.	8e-/J	.	.	.	.	.
=60	=60	=60	=60	=60	=60	=60	=60
2F/	1AA-	8rg	1d-	.	1r	.	.
.	.	8cc/L	.	.	.	.	.
.	.	8b-/	.	.	.	.	.
.	.	8a-/J	.	.	.	.	.
8F-X/L	.	4.a-/	.	.	.	.	.
8E-/J	.	.	.	.	.	.	.
4F-/	.	.	.	.	.	.	.
.	.	8g/	.	.	.	.	.
=61	=61	=61	=61	=61	=61	=61	=61
1E-;	1AA-	1a-;	1c	.	1r;	.	.
*v	*v	*	*	*	*	*	*
*	*v	*v	*	*	*	*
==	==	==	==	==	==
*-	*-	*-	*-	*-	*-
!!!system-decoration: {(s1,<s2,s3>)}
!!!RDF**kern: > = above
!!!RDF**kern: < = below
!!!RDF**kern: | = vertical stroke
!!!RDF**kern: N = link
!!!AIN: 1 organ 1 vox
!!!ENC: Kamil Watkowski
!!!END: 2021-08-04
